packages/foundations/assets/icons/functional/images/editing/bin_24.svg

<svg width="24" height="24" viewBox="0 0 24 24" fill="none" xmlns="http://www.w3.org/2000/svg">
<g clip-path="url(#clip0_2204_2779)">
<path fill-rule="evenodd" clip-rule="evenodd" d="M3 8C3 7.4375 3.4375 7 4 7H5C6.09375 7 7 7.90625 7 9V20H17V9C17 7.90625 17.9062 7 19 7H20C20.5625 7 21 7.4375 21 8C21 8.5625 20.5625 9 20 9H19V20C19 21.0938 18.0938 22 17 22H7C5.90625 22 5 21.0938 5 20V9H4C3.4375 9 3 8.5625 3 8ZM3 5C3 4.4375 3.4375 4 4 4H8V3C8 2.4375 8.4375 2 9 2H15C15.25 2 15.5 2.09375 15.6875 2.28125C15.875 2.46875 16 2.71875 16 3V4H20C20.5625 4 21 4.4375 21 5C21 5.5625 20.5625 6 20 6H4C3.4375 6 3 5.5625 3 5ZM9 17V10C9 9.46875 9.46875 9 10 9C10.5625 9 11 9.46875 11 10V17C11 17.5312 10.5625 18 10 18C9.4375 18 9 17.5312 9 17ZM13 17V10C13 9.46875 13.4688 9 14 9C14.5625 9 15 9.46875 15 10V17C15 17.5312 14.5625 18 14 18C13.4375 18 13 17.5312 13 17Z" fill="#1A1C1F"/>
</g>
<defs>
<clipPath id="clip0_2204_2779">
<rect width="24" height="24" fill="white"/>
</clipPath>
</defs>
</svg>

<svg xmlns="http://www.w3.org/2000/svg" width="24" height="24" fill="none"><g clip-path="url(#a)"><path fill="#1A1C1F" fill-rule="evenodd" d="M3 8c0-.562.438-1 1-1h1c1.094 0 2 .906 2 2v11h10V9c0-1.094.906-2 2-2h1c.563 0 1 .438 1 1s-.437 1-1 1h-1v11c0 1.094-.906 2-2 2H7c-1.094 0-2-.906-2-2V9H4c-.562 0-1-.437-1-1m0-3c0-.562.438-1 1-1h4V3c0-.562.438-1 1-1h6a1.017 1.017 0 0 1 1 1v1h4c.563 0 1 .438 1 1s-.437 1-1 1H4c-.562 0-1-.437-1-1m6 12v-7c0-.531.469-1 1-1 .563 0 1 .469 1 1v7c0 .531-.437 1-1 1s-1-.469-1-1m4 0v-7c0-.531.469-1 1-1 .563 0 1 .469 1 1v7c0 .531-.437 1-1 1s-1-.469-1-1" clip-rule="evenodd"/></g><defs><clipPath id="a"><path fill="#fff" d="M0 0h24v24H0z"/></clipPath></defs></svg>
